X:1
T:Title
%%score { 1 | ( 2 3 ) }
L:1/8
Q:1/4=100
M:4/4
K:G
V:1 treble nm="Grand Piano"
V:2 bass 
V:3 bass 
V:1
 [DGB]2 [DGB]2 [CFA]2 [CFA]2 | [B,G]2 [B,EG]2 [B,^DF]4 | [B,EG]2 [G,DG]2 [G,CE]3 [CEA] | %3
w: J.~E.~Gould * * *|||
 [B,DG]2 [A,DF]2 [B,DG]4 | A3 A A2 BF | G2 A2 G2 F2 | GABB .[Ed]2 [DGB][CEA] | %7
w: ||||
 [B,DG]2 .[A,F]2 [B,DG]4 |] %8
w: |
V:2
 G,2 G,2 D,2 D,2 | E,2 E,2 B,,4 | E,2 B,,2 C,3 A,, | D,2 D,2 G,,4 | %4
 [CF]3 [CE][K:bass] [B,^D]2 [B,D]2 | [E,E]2 [CE]2 D2- [A,D]2 | %6
 [G,D]-[G,-CD][G,DG][^G,D=F][K:bass] z cB,,C, | D,2 z C G,,4 |] %8
V:3
 x8 | x8 | x8 | x8 | x4[K:bass] x4 | z4 B,2 z2 | .B,2 z2[K:bass] [A,,A,]2 z2 | z2 D,2 z4 |] %8

